X: 187
T:The Milky Way
M:4/4
L:1/8
C:Vincent Broderick
S:John Skelton
R:Reel
D:John Skelton, One at a Time (PAN 146CD)
Z:Chris Corrigan, 10/4/2000
K:D
|:D2 (3FED ADFA|d2 fd ef d2|D2 (3FED ADFA|BE E2 BE E2|
D2 (3FED ADFA|d2 fd ef d2|dffd efdB|AFEF d4:|
|:efdB AFEF|d2 fd ef d2|efdB AFEF|A2 FE AFAE|
efdB AFEF|defd ef d2|dffd efdB|AFEF d4:|
<end>
<start>
